icons/svg/16x16/notifications/filled.svg

<svg width="16" height="16" fill="none" xmlns="http://www.w3.org/2000/svg">
  <path fill-rule="evenodd" clip-rule="evenodd" d="M14 10c-1.559-1.597-2-2.839-2-5s-1.791-4-4-4-4 1.839-4 4-.441 3.403-2 5c1 .863 3.149 2 6 2s5-1.137 6-2zm-6 3h2a2 2 0 01-4 0h2z" fill="#000"/>
</svg>

<svg xmlns="http://www.w3.org/2000/svg" width="16" height="16" viewBox="0 0 16 16">
  <path fill-rule="evenodd" d="M14,10 C12.441,8.403 12,7.161 12,5 C12,2.839 10.209,1 8,1 C5.791,1 4,2.839 4,5 C4,7.161 3.559,8.403 2,10 C3,10.863 5.149,12 8,12 C10.851,12 13,10.863 14,10 L14,10 Z M8,13 L10,13 C10,14.104 9.104,15 8,15 C6.896,15 6,14.104 6,13 L8,13 Z"/>
</svg>
